X:252
T:McGurk's
R:jig
D:Music at Matt Molloy's
Z:id:hn-jig-252
M:6/8
K:D
~f2d faa|gec Ace|dAA eAA|fAA efg|
~f2d faa|gec Ace|~d3 faf|gec d2e:|
K:A
|:cea ece|dBG EGB|Aee Bee|cec Bcd|
cea ece|dBG EGB|~A3 cec|1 dBG A2B:|2 efg a2=g||

